X: 4
T: Barbados Bells
Z: ceolachan
S: https://thesession.org/tunes/9573#setting20052
R: polka
M: 2/4
L: 1/8
K: Dmaj
d2 d2 e2 de | f2 d2 d2 ed | B2 e2 efed | c2 A2 A2 AB |d2 d2 e2 de | f2 ed c2 BA | B2 g2 fedc | d4 d2 :|a2 d2 d2 fd | g2 e2 e2 fg | f2 B2 B2 cd | efed c2 BA |a2 d2 d2 fd | g2 e2 e2 fg | f2 ed e2 dB | d4 d2 :|d2 d2 e2 de | f2 d2 d2 ed | B2 e2 efed | c2 A2 A2 Ac |d2 d2 e2 de | f2 ed c2 BA | B2 g2 fedc | d4 d2 :|a2 d2 d2 fd | g2 e2 e2 fg | f2 B2 B2 cd | efed c2 BA |a2 d2 d2 fd | g2 e2 e2 fg | f2 ed e2 dc | d4 d2 :|
